X:1
T:A minor Daniel Read, 1793 (Revised 1804)
T:Isaac Watts, 1719 (Psalm 130)   86. 86. (C. M.)
T:Camden No Copyright. Transcribed from The Columbian Harmonist, 1807.
%%score [ 1 2 3 4 ]
L:1/8
M:4/4
K:C
V:1 treble nm="Treble" snm="Tr."
V:2 treble nm="Counter" snm="C."
V:3 treble-8 nm="Tenor" snm="T."
V:4 bass nm="Bass" snm="B."
V:1
 e4 | c4 B4 | A4 B4 | c4 (d2 c2) |{c} B8- | B4 (c2 e2) | (d2 B2) (B2 d2) | (c2 A2) (A2 c2) | E8 | %9
 z4 ^G4 | A4 B4 | c4 (d2 B2) | c4 (d2 e2) | (A4 ^G4 | ^G4) z2 G2 | A4 c4 | (B2 c2) (d2 c2) | %17
 B6 B2 | (cB A2) (fe d2) | c4 (B3 A) | A4 e4 | d4 d4 | (c2 A2 ^G2 B2 | A4) ^G4 | A8 |] %25
V:2
 E4 | E4 E4 | E4 E4 | (A2 G2) F4 | E8- | E4 E4 | G4 G4 | E4 E4 | E8 | z4 E4 | E4 G4 | G4 (G2 F2) | %12
w: 1.~Out|of the|deeps of|long * dis-|tress~~|* The|bor- ders|of des-|pair,|I|sent my|cries to *|
 E4 D4 | E8- | E4 z2 E2 | A4 (E2 F2) | G4 G4 | %17
w: seek Thy|grace~|* My|groans to *|move Thine|
 G6"^My     groans      to            move    Thine    ear," z2 | z8 | z8 | z4 G4 | G4 (G2 A2) | %22
w: ear,|||My|groans to *|
 E8- | E4 E4 | E8 |] %25
w: move~|* Thine|ear.|
V:3
 E4 | A4 B4 | c4 G4 | (A2 c2) (B2 A2) |{A} ^G8- | G4 (e2 c2) | d4 (d2 B2) | c4 (c2 A2) | B8 | %9
 z4 B4 | c4 d4 | (e2 c2) B4 | A4{A} G4 | (c4 B4 | B4) z2 e2 | f4 e4 | e4 d4 | d6 z2 | z8 | z8 | %20
 z4 e4 | g4 d4 | (e2 c2 d2 B2 | c4) B4 | A8 |] %25
V:4
 E,4 | A,,4 E,4 | A,4 G,4 | (F,2 E,2) D,4 | E,8- | E,4 C,4 | G,4 G,4 | A,4 A,,4 | E,8- | E,4 E,4 | %10
 A,4 G,4 | C4 G,4 | A,4 B,4 | E,8- | E,4 z2 E,2 | D,4 C,4 | G,4 G,4 | G,6 ^G,2 | A,4 D,4 | %19
 E,4 E,4 | A,,4 C4 | G,4 (G,2 F,2) | E,8- | E,4 E,4 | A,,8 |] %25

